X:1
T:HALLOWE'EN
T:HALLOWE'EN The Jack O'Lantern Rag
T:by ARTHUR  MANLOWE
T:Copyright, 1911, by Will Rossiter
T:Copyright, 1911, by Will Rossiter
T:Copyright, 1911, by Will Rossiter
T:Copyright, 1911, by Will Rossiter
T:Copyright, 1911, by Will Rossiter
T:Copyright, 1911, by Will Rossiter
C:by ARTHUR  MANLOWE
Z:Copyright, 1911, by Will Rossiter
%%score { ( 1 3 ) | 2 }
L:1/8
Q:1/4=100
M:2/4
K:F
V:1 treble nm="Piano" snm="Pno."
V:3 treble 
V:2 bass 
V:1
"^Moderato"!f!"^Dedicated to Russell  L  Joseph" C/^C/D/^D/ E/F/^F/G/ | ^G/A/B/=B/ c/^c/d/^d/ | %2
 e/gd/- d/g/_e | c z !^![cegc']!mf! c/d/ || [GBe]/^d/e/[GB=d]/- [GBd]^c/d/ | %5
 [EGc]/=B/c/[EG_B]/- [EGB]/A/B/^G/ | [FA]/[Af][FAd]/- [FAd]2 | z/ F/A/c/ d/c/A/F/ | %8
 E/[Be][Bd]/- [Bd]2 | z/ E/G/B/ d/c/B/G/ | F/E/F/G/ [FA]/^G/A/B/ | [FAc]/=B/c/^c/ [FAd]/^c/d/^d/ | %12
 [GBe]/^d/e/[GB=d]/- [GBd]^c/d/ | [EGc]/=B/c/[EG_B]/- [EGB]/A/B/^G/ | [FA]/[Af][FAd]/- [FAd]2 | %15
 z FE_E | _E/D/^F/A/ _e/d/A/d/ | c/B/A/B/ c/B/G/D/ | C/D/F/A/ D/F/^G/=B/ | %19
 c!>![EBc]!>![FAcf] (3c/d/e/ ||!f! !>!f!>![Acfa] !>![Aa]!>![A^cga] | %21
 z/ ^g/a/[c^fb]/- [cfb]/a/f/d/ | [=c=fa][Bfg][Bfa][Bfg] | [=Bfa]/g/f/[Bfa]/- [Bfa]/g/d/^d/ | %24
 e[deb][cea][Beg] | [A^d^f]/[Beg][cegc']/- [cegc']3/2 (3c/4=d/4e/4 | f/g/a/!>![=Bf]/- [Bf]/g/a/f/ | %27
 g/^f/g/[cegc']/- [cegc'] (3c/d/e/ |!f! f!>![Acfa] !>![Aa]!>![A^cga] | %29
 z/ ^g/a/[c^fb]/- [cfb]/a/f/d/ | [=c=fa][Bfg][Bfa][Bfg] | [=Bfa]/g/f/[df]/- [df]/^c/[Bd]/e/ | %32
 f[ff'][ee'][dd'] | [cc']/[=B=b]/[cc']/[^c^c']/ [dd']/[=c=c']/[_B_b]/[Aa]/ | [Aa]2 [Gg]2 | %35
 [Ff]!>![ebc'] !>![fac'f'] c/d/ |!mf! [GBe]/^d/e/[GB=d]/- [GBd]^c/d/ | %37
 [EGc]/=B/c/[EG_B]/- [EGB]/A/B/^G/ | [FA]/[Af][FAd]/- [FAd]2 | z/ F/A/c/ d/c/A/F/ | %40
 E/[Be][Bd]/- [Bd]2 | z/ E/G/B/ d/c/B/G/ | F/E/F/G/ [FA]/^G/A/B/ | [FAc]/=B/c/^c/ [FAd]/^c/d/^d/ | %44
 [GBe]/^d/e/[GB=d]/- [GBd]^c/d/ | [EGc]/=B/c/[EG_B]/- [EGB]/A/B/^G/ | [FA]/[Af][FAd]/- [FAd]2 | %47
 z FE_E | _E/D/^F/A/ _e/d/A/d/ | c/B/A/B/ c/B/G/D/ | C/D/F/A/ D/F/^G/=B/ | c!>![EBc]!>![FAcf] z |: %52
[K:Bb][M:2/4]"^TRIO"!mf! [FBd]^c/[FBd]/- [FBd]/c/[FBd] | z/ ^c/d/[G=Bdg]/- [GBdg]/f/[GBe]/d/ | %54
 [GB=e]^d/[GBe]/- [GBe]/d/[GBe] | z/ ^f/g/[=egc']/- [egc']/b/[ea]/g/ | %56
 a/g/f/[c_ea]/- [cea]/g/f/g/ | a/^g/a/[fad']/- [fad']/a/[eac'] |{fga} b/c'/f'/f/ b/d'/d/f/ | %59
 b/B/d/f/ F/B/c/^c/ | [FBd]^c/[FBd]/- [FBd]/c/[FBd] | z/ ^c/d/[G=Bdg]/- [GBdg]/f/[GBe]/d/ | %62
 [GB=e]^d/[GBe]/- [GBe]/d/[GBe] | z/ ^f/g/[=egc']/- [egc']/b/[ea]/g/ | %64
 a/g/f/[c_ea]/- [cea]/g/f/g/ | a/^g/a/[fad']/- [fad']/a/[eac'] | [db]f/g/- g/a/g/f/ ||1 %67
 bF/G/- G/A/B/c/ :|2 b z !^![Bdfb] z |] %69
V:2
 C,/^C,/D,/^D,/ E,/F,/^F,/G,/ | ^G,/A,/B,/=B,/ C/^C/D/^D/ | x4 | x2 !^![C,C] z || %4
 G,[B,CE] C,[B,CE] | G,[B,C] C,[B,C] | F,[A,C] [F,A,C]!>!C, | !>!F,[A,C] C,[A,C] | %8
 G,[B,CE] [B,CE]!>!C, | !>!G,[B,CE] C,[B,CE] | F,[A,C] C,[A,C] | F,[A,C] [A,,A,][_A,,_A,] | %12
 G,[B,CE] C,[B,CE] | G,[B,C] C,[B,C] | F,[A,C] [F,A,C]!>!C, | !>!F,[A,C] C,[A,C] | %16
 D,,[D,^F,A,C] ^F,,[D,A,C] | G,,[G,B,D] B,,[D,G,B,] | C,[F,A,C] =B,,[^F,G,=B,] | %19
 [C,F,A,C] !>![C,,C,]!>![F,,,F,,] z || [F,F][A,CF] [E,E][A,^CEG] | [D,D][A,CD^F] [C,C][A,CDF] | %22
 [=B,,=B,][G,DF] [G,,G,][G,B,DF] | [D,D][G,=B,DF] [G,,G,][G,B,DF] | [C,C][B,CE] [G,,G,][B,CE] | %25
 [C,C][B,CE] [G,,G,][B,CE] | F,[A,CF] [D,D][D,D] | [C,C][B,CE] [B,CE]!>![C,C] | %28
 [F,F][A,CF] [E,E][A,^CEG] | [D,D][A,CD^F] !>![D,D]!>![D,D] | [=B,,=B,][G,DF] [G,,G,][G,B,DF] | %31
 [D,D][G,=B,DF] [G,,G,][G,B,DF] | [^G,,^G,][G,=B,DF][G,B,DF][G,B,DF] | %33
 [A,,A,][A,CF] [D,,D,][CD^F] | [G,,G,][G,=B,F] [C,C][_B,CE] | [F,F][C,C] [F,,F,] z | %36
 G,[B,CE] C,[B,CE] | G,[B,C] C,[B,C] | F,[A,C] [F,A,C]!>!C, | !>!F,[A,C] C,[A,C] | %40
 G,[B,CE] [B,CE]!>!C, | !>!G,[B,CE] C,[B,CE] | F,[A,C] C,[A,C] | F,[A,C] [A,,A,][_A,,_A,] | %44
 G,[B,CE] C,[B,CE] | G,[B,C] C,[B,C] | F,[A,C] [F,A,C]!>!C, | !>!F,[A,C] C,[A,C] | %48
 D,,[D,^F,A,C] ^F,,[D,A,C] | G,,[G,B,D] B,,[D,G,B,] | C,[F,A,C] =B,,[^F,G,=B,] | %51
 [C,F,A,C] !>![C,,C,]!>![F,,,F,,] z |:[K:Bb][M:2/4] [B,,B,][F,B,D] [F,,F,][F,B,D] | %53
 [=B,,=B,][G,B,DF] [G,,G,][G,B,DF] | [C,C][_B,C=E] C,,[B,CE] | [G,,G,][B,C=E] [C,,C,][B,CE] | %56
 [A,,A,][F,A,_E] [F,,F,][F,A,E] | [C,C][F,A,E] [F,,F,][F,A,E] | [B,,B,] z z2 | z4 | %60
 [B,,B,][F,B,D] [F,,F,][F,B,D] | [=B,,=B,][G,B,DF] [G,,G,][G,B,DF] | [C,C][_B,C=E] C,,[B,CE] | %63
 [G,,G,][B,C=E] [C,,C,][B,CE] | [A,,A,][F,A,_E] [F,,F,][F,A,E] | [C,C][F,A,E] [F,,F,][F,A,E] | %66
 [B,,B,]F,/G,/- G,/A,/G,/F,/ ||1 B,F,/G,/- G,/ z/ z :|2 B, z !^![B,,,B,,] z |] %69
V:3
 x4 | x4 | E/GD/- D/G/_E | C z x2 || x4 | x4 | x4 | x4 | x4 | x4 | x4 | x4 | x4 | x4 | x4 | x4 | %16
 x4 | x4 | x4 | x4 || x4 | x4 | x4 | x4 | x4 | x4 | x4 | x4 | x4 | x4 | x4 | x4 | x4 | x4 | x4 | %35
 x4 | x4 | x4 | x4 | x4 | x4 | x4 | x4 | x4 | x4 | x4 | x4 | x4 | x4 | x4 | x4 | x4 |: %52
[K:Bb][M:2/4] x4 | x4 | x4 | x4 | x4 | x4 | x4 | x4 | x4 | x4 | x4 | x4 | x4 | x4 | x4 ||1 x4 :|2 %68
 x4 |] %69

